X:0170
M:C
L:1/8
Q:1/2=104
K:E Minor
e|ge`Be Eeeg|fd`Ad Dd  de/f/    |geBe  dBAG|Fd  B/A/G/F/  GE`Ee|
  ge`Be EGeg|fd`Ad DA``df       |gefd  eBAG|Fd  B/A/G/F/  GE`E:|

